dist/svgs/unicons/line/usd-square.svg

<svg xmlns="http://www.w3.org/2000/svg" viewBox="0 0 24 24"><path d="M11 9h4a1 1 0 000-2h-2V6a1 1 0 00-2 0v1a3 3 0 000 6h2a1 1 0 010 2H9a1 1 0 000 2h2v1a1 1 0 002 0v-1a3 3 0 000-6h-2a1 1 0 010-2zm8-7H5a3 3 0 00-3 3v14a3 3 0 003 3h14a3 3 0 003-3V5a3 3 0 00-3-3zm1 17a1 1 0 01-1 1H5a1 1 0 01-1-1V5a1 1 0 011-1h14a1 1 0 011 1z"/></svg>

<svg xmlns="http://www.w3.org/2000/svg" viewBox="0 0 24 24"><path d="M11,9h4a1,1,0,0,0,0-2H13V6a1,1,0,0,0-2,0V7a3,3,0,0,0,0,6h2a1,1,0,0,1,0,2H9a1,1,0,0,0,0,2h2v1a1,1,0,0,0,2,0V17a3,3,0,0,0,0-6H11a1,1,0,0,1,0-2Zm8-7H5A3,3,0,0,0,2,5V19a3,3,0,0,0,3,3H19a3,3,0,0,0,3-3V5A3,3,0,0,0,19,2Zm1,17a1,1,0,0,1-1,1H5a1,1,0,0,1-1-1V5A1,1,0,0,1,5,4H19a1,1,0,0,1,1,1Z"/></svg>
